public/images/icons/cart.svg

<svg width="32" height="30" viewBox="0 0 32 30" fill="none" xmlns="http://www.w3.org/2000/svg">
<path d="M30.6852 5.67404H5.66514L5.29322 1.53022C5.23239 0.852573 4.66454 0.333336 3.98429 0.333336H1.31418C0.588379 0.333336 0 0.921797 0 1.6477C0 2.37361 0.588379 2.96207 1.31418 2.96207H2.78282C3.58541 11.9049 1.51112 -11.209 4.29432 19.804C4.40158 21.0179 5.05736 22.3351 6.18706 23.2301C4.15026 25.8315 6.01127 29.6667 9.32445 29.6667C12.0744 29.6667 14.0139 26.9237 13.0709 24.3257H20.2636C19.3218 26.9203 21.2571 29.6667 24.01 29.6667C26.207 29.6667 27.9943 27.8791 27.9943 25.6818C27.9943 23.4846 26.207 21.697 24.01 21.697H9.33334C8.33506 21.697 7.46513 21.0946 7.08965 20.217L28.0921 18.9825C28.6654 18.9488 29.1506 18.5465 29.2899 17.9892L31.9602 7.30717C32.1672 6.47887 31.5403 5.67404 30.6852 5.67404ZM9.32445 27.0379C8.57687 27.0379 7.96859 26.4296 7.96859 25.6818C7.96859 24.9341 8.57687 24.3257 9.32445 24.3257C10.0721 24.3257 10.6804 24.9341 10.6804 25.6818C10.6804 26.4296 10.0721 27.0379 9.32445 27.0379ZM24.01 27.0379C23.2623 27.0379 22.654 26.4296 22.654 25.6818C22.654 24.9341 23.2623 24.3257 24.01 24.3257C24.7576 24.3257 25.3659 24.9341 25.3659 25.6818C25.3659 26.4296 24.7576 27.0379 24.01 27.0379ZM26.9741 16.415L6.73588 17.6045L5.90106 8.30271H29.002L26.9741 16.415Z" fill="#27A9DC"/>
</svg>

<svg xmlns="http://www.w3.org/2000/svg" width="32" height="30" fill="none"><path fill="#27A9DC" d="M30.685 5.674H5.665L5.293 1.53A1.314 1.314 0 0 0 3.984.333h-2.67a1.314 1.314 0 0 0 0 2.63h1.469l1.511 16.841c.108 1.214.763 2.531 1.893 3.426-2.037 2.601-.176 6.437 3.137 6.437 2.75 0 4.69-2.743 3.747-5.341h7.193c-.942 2.594.993 5.34 3.746 5.34a3.99 3.99 0 0 0 3.984-3.984 3.99 3.99 0 0 0-3.984-3.985H9.333a2.44 2.44 0 0 1-2.243-1.48l21.002-1.234a1.31 1.31 0 0 0 1.198-.994l2.67-10.682a1.315 1.315 0 0 0-1.275-1.633M9.325 27.038a1.36 1.36 0 0 1-1.356-1.356c0-.748.608-1.356 1.355-1.356.748 0 1.356.608 1.356 1.356s-.608 1.356-1.356 1.356m14.685 0a1.36 1.36 0 0 1-1.356-1.356c0-.748.608-1.356 1.356-1.356s1.356.608 1.356 1.356-.608 1.356-1.356 1.356m2.964-10.623-20.238 1.19L5.9 8.303h23.101z"/></svg>
